X: 182085
T: Road to Glencar (The)
C: Joe Liddy
Z: BB
S: "The Leitrim Fiddler" (Dublin 1981)
L: 1/8
M: 6/8
R: jig
Q: 1/4 = 170
K: Gm
A | B2G AGF | GAG GAc | d=ef dcA | BAG FGA |
BAG AGF | GAc def | gfd cAF | AGF G2 :|
c | dgg gag | gfd fga | gfd dfc | dcA GAc |
dgg gag | gfd Bcd | fdc BAG AGF G2c |
dgg gag | gfd cdf | gfd fdc | dcA GFD |
d=ef gab | gfd Bcd | fdc BAG | AGF G3 ||
%%%%%%%%%%%%%%%%%%%%%%
